X:1
T:Shall I Meet You Up There?
T:Shall I Meet You Up There?
T:John B. Vaughan
T:John B. Vaughan, 1890
T:Public Domain Courtesy of the Cyber Hymnal™
T:Public Domain Courtesy of the Cyber Hymnal™
C:John B. Vaughan
Z:Public Domain
Z:Courtesy of the Cyber Hymnal™
%%score ( 1 2 ) ( 3 4 )
L:1/8
M:6/8
K:Bb
V:1 treble 
V:2 treble 
V:3 bass 
V:4 bass 
V:1
 ([DF]/[CE]/) | [B,D][DF][FB] [Fd]2 (F/F/) | [Ec][CE][Ec] [DB]2 ([DF]/[EG]/) | %3
w: 1.~There’s~a *|beau- ti- ful home far *|up in the sky, And *|
w: 2.~In~that *|beau- ti- ful land where~no *|sor- row will come, We~shall *|
w: 3.~No *|night shall be there, it~is *|one end- less day, No *|
w: 4.~When~my *|work here is done, then~the *|an- gels will come And *|
 [DF][B,D][CE] [DF]2 [DF]/[EG]/ | [DF][B,D][CE] [DF]2 [DF] | [B,D][DF][FB] [Fd]2 F/F/ | %6
w: man- sions pre- pared by our|Sav- ior on high; He|wants me to live in that|
w: sing hal- le- lu- jah a-|round the bright throne; A|beau- ti- ful robe and a|
w: tears will be shed, God will|wipe them a- way; No|sick- ness and dy- ing, no|
w: take me a- way to my|beau- ti- ful home; For-|ev- er to dwell in my|
 [Fc][CE][Ec] [DB]2 [FB] | [Ec][EB][EG] [DF]<[DB][FB]/[Gc]/ | [Fd][DF][Ec] !fermata![DB]2 || %9
w: coun- try so fair, And|when I’m in glo- ry, shall I|meet you up there?|
w: crown we shall wear, And|live there with Je- sus. Shall I|meet you up there?|
w: pain we shall bear, No|part- ing with loved ones. Shall I|meet you up there?|
w: Fa- ther’s own care, With|an- gels and loved ones. Shall I|meet you up there?|
"^Refrain" G/F/ | DFB (z2 x2 | f3-) [Bf]2 x | BGB (z2 x2 | d3-) [Gd]2 [DB] | %14
w: |||||
w: |||||
w: Shall I|meet you up|* there?|Shall I meet|* you up|
w: |||||
 [Fd][Fc][Fc] [Fc][FB][FA]/[FA]/ | [=EG][EA][EB] !fermata![Fc]2 G/F/ | DFB (z2 x2 | %17
w: |||
w: |||
w: * there? Where loved ones are wait-|ing, shall I meet you up|there? Shall I|
w: |||
 f3-) [Bf]2 d/c/ | BGB (z2 x2 | d3-) [Gd]2 [DB] | [Fd][DB][EG] F<[DB][FB]/[Gc]/ | %21
w: ||||
w: ||||
w: * meet you up|* there? Shall|* I meet|* you up there? Where loved ones|
w: ||||
 [Fd][DF][Ec] !fermata![DB]2 |] %22
w: |
w: |
w: are wait- ing, shall|
w: |
V:2
 x | x5 F/F/ | x6 | x6 | x6 | x5 F/F/ | x6 | x6 | x5 || x | x3 f3- B/B/ | (ABc d/)c/ x2 | %12
 x3 d3- B/A/ | GG^F x3 | x6 | x6 | x3 f3- B/B/ | ABc x3 | x3 d3- B/A/ | GG^F x3 | x3 F/ x5/2 | %21
 x5 |] %22
V:3
 ([B,,B,]/[B,,B,]/) | [B,,F,][B,,B,][B,,D] [B,,B,]2 ([D,B,]/[D,B,]/) | %2
w: ~ *|~ ~ ~ ~ ~ *|
 F,F,F, [B,,F,]2 ([B,,B,]/[B,,B,]/) | [B,,B,][B,,F,][B,,B,] [B,,B,]2 [B,,B,]/[B,,B,]/ | %4
w: ~ ~ ~ ~ ~ *|~ ~ ~ ~ ~ ~|
 [B,,B,][B,,F,][B,,B,] [B,,B,]2 [B,,B,] | [B,,F,][B,,B,][B,,D] B,2 [D,B,]/[D,B,]/ | %6
w: ~ ~ ~ ~ ~|~ ~ ~ ~ ~ ~|
 F,F,F, [B,,F,]2 [D,F,] | [E,G,][E,G,][E,B,] [B,,B,]<[B,,F,][E,B,]/[E,B,]/ | %8
w: ~ ~ ~ ~ ~|~ ~ ~ ~ ~ ~ ~|
 [F,B,][F,B,][F,A,] !fermata![B,,B,]2 || z | z3 z2 [B,D]/[B,D]/ x | [F,C][F,D][F,E] [B,D]2 z | %12
w: ~ ~ ~ ~||Shall I|meet you up there?|
 z3 z2 [B,D]/[B,C]/ x | [G,B,]G,[D,D] [G,B,]2 [B,,B,] | %14
w: Shall I|meet you up there? ~|
 [F,B,][F,A,][F,A,] [F,A,][F,D][F,C]/[F,C]/ | [C,C][C,C][C,G,] !fermata![F,A,]2 z | %16
w: ~ ~ ~ ~ ~ ~ ~|~ ~ ~ ~|
 z3 z2 [B,D]/[B,D]/ x | [F,C][F,D][F,E] [B,D]2 z | z3 z2 [B,D]/[B,C]/ x | %19
w: Shall I|meet you up there?|Shall I|
 [G,B,]G,[D,D] [G,B,]2 [B,,B,] | [B,,B,][B,,F,][B,,B,] [B,,D]<[B,,F,][D,B,]/[E,B,]/ | %21
w: meet you up there? *||
 [F,B,][F,B,]F, !fermata![B,,F,]2 |] %22
w: |
V:4
 x | x6 | F,F,F, x3 | x6 | x6 | x3 B,2 x | F,F,F, x3 | x6 | x5 || x | x7 | x6 | x7 | x G, x4 | x6 | %15
 x6 | x7 | x6 | x7 | x G, x4 | x6 | x2 F, x2 |] %22

